X: 12822
T: Feis Gleann Albainn
R: reel
M: 4/4
K: Amajor
AB|c2 cc cB A2|d2 c2 A2 AB|c2 cc cB A2|B2 Bc BAFE|
c2 cc cB A2|d2 c2 A2 AB|c2 cc BAEF|1 A6:|2 A8||
g3g g2 a2|e2 AB cB A2|g2 gg g2 a2|e2 dc B4|
g2 gg g2 a2|e2 AB cB A2|BcBA EF G2|1 A2 AA BcBA:|2 A8||

